src/amo/components/Icon/img/external-dark.svg

<svg width="10px" height="9px" viewBox="0 0 10 9" version="1.1" xmlns="http://www.w3.org/2000/svg" xmlns:xlink="http://www.w3.org/1999/xlink">
    <!-- Generator: Sketch 48.2 (47327) - http://www.bohemiancoding.com/sketch -->
    <desc>Created with Sketch.</desc>
    <defs></defs>
    <g id="Symbols" stroke="none" stroke-width="1" fill="none" fill-rule="evenodd">
        <g id="Group-62" transform="translate(-299.000000, -20.000000)" fill="#0F1126" fill-rule="nonzero">
            <g id="Group-63" transform="translate(299.000000, 20.000000)">
                <path d="M2.66571426,0 L1.9992857,0 C0.895110696,0 0,0.863450839 0,1.92857143 L0,7.07142857 C0,8.13654913 0.895110696,9 1.9992857,9 L7.33071423,9 C8.43488919,9 9.32999992,8.13654913 9.32999992,7.07142857 L9.32999992,6.42857143 C9.32999992,6.07353126 9.03162966,5.78571429 8.66357136,5.78571429 C8.29551306,5.78571429 7.99714279,6.07353126 7.99714279,6.42857143 L7.99714279,7.07142857 C7.99714279,7.42646874 7.69877253,7.71428571 7.33071423,7.71428571 L1.9992857,7.71428571 C1.63122736,7.71428571 1.33285713,7.42646874 1.33285713,7.07142857 L1.33285713,1.92857143 C1.33285713,1.57353123 1.63122736,1.28571429 1.9992857,1.28571429 L2.66571426,1.28571429 C3.0337726,1.28571429 3.33214283,0.997897339 3.33214283,0.642857143 C3.33214283,0.287816946 3.0337726,0 2.66571426,0 Z" id="Shape"></path>
                <path d="M9.28689066,0.397285714 C9.1839637,0.157084174 8.94121969,0.000302175 8.67177709,0 L5.33963426,0 C4.97157592,0 4.67320569,0.287816946 4.67320569,0.642857143 C4.67320569,0.997897339 4.97157592,1.28571429 5.33963426,1.28571429 L7.06301853,1.28571429 L4.86846926,3.40264286 C4.69522677,3.56404787 4.62574759,3.80306436 4.68673609,4.02782613 C4.74772459,4.25258792 4.92968955,4.42811682 5.16269259,4.48694817 C5.39569563,4.54577953 5.64347605,4.4787578 5.81079925,4.31164286 L8.00534853,2.19471429 L8.00534853,3.85714286 C8.00534853,4.21218305 8.30371873,4.5 8.67177709,4.5 C9.03983539,4.5 9.33820566,4.21218305 9.33820566,3.85714286 L9.33820566,0.642857143 C9.33796008,0.558546004 9.32052411,0.47510487 9.28689066,0.397285714 Z" id="Shape"></path>
            </g>
        </g>
    </g>
</svg>

<svg width="10" height="9" xmlns="http://www.w3.org/2000/svg"><g fill="#0F1126" fill-rule="nonzero"><path d="M2.666 0h-.667C.895 0 0 .863 0 1.929V7.07C0 8.137.895 9 2 9h5.33c1.105 0 2-.863 2-1.929V6.43a.655.655 0 0 0-.666-.643.655.655 0 0 0-.667.643v.642a.655.655 0 0 1-.666.643H1.999a.655.655 0 0 1-.666-.643V1.93c0-.355.298-.643.666-.643h.667a.655.655 0 0 0 .666-.643A.655.655 0 0 0 2.666 0Z"/><path d="M9.287.397A.667.667 0 0 0 8.672 0H5.34a.655.655 0 0 0-.667.643c0 .355.299.643.667.643h1.723L4.868 3.403a.628.628 0 0 0-.181.625c.06.225.243.4.476.459a.683.683 0 0 0 .648-.175l2.194-2.117v1.662c0 .355.299.643.667.643a.655.655 0 0 0 .666-.643V.643a.623.623 0 0 0-.051-.246Z"/></g></svg>
